X:102
T:Azadi Aalan (Freedom Now) 
R:reel
C: 2001, 2010 L.E. McCullough 
M:4/4
L:1/8
K:G
|:~B3A AGEF|~G3E DEGA|B~G3 gedB|~A2BG A2GA|
B~G3 AGEF|GA (3GFE DEGA|B~G3 gedB|AGBA ~G3A:|
|:~F3D FABA|c~A3 BA (3GAB|c~A3 (3Bcd BG|BAAG AGFE|
~F3D FABA|c~A3 edcd|e=fed g=fed|1(3=fed ec d2 z2:|2(3=fed ec dcBA|]
<end>
<start>
